X: 165
T:Kyrie Pascale
N: Derived from Jos1314-Kyrie_Pascale.krn
C: Josquin des Prez
%%abc-version 2.0
%%abcx-abcm2ps-target-version 5.9.1 (29 Sep 2008)
%%abc-creator hum2abc beta
%%abcx-conversion-date 2019/02/12 16:15:46
%%abc-edited-by Jesse Rodin
%%abc-edited-by Jesse Rodin (8/15/2012)
%%abcx-initial-encoding-date 2012/08/15/
%%humdrum-veritas 1361943420
%%humdrum-veritas-data 1837623098
%%linebreak <none>
%%barnumbers 0
L: 1/4
M: 2/1
Q: 1/2=120
%%staves [1 2 3 4]
V: 1 clef=treble
V: 2 clef=treble-8
V: 3 clef=treble-8
V: 4 clef=bass
K: C
[V:1] G4A4 | 
[V:2] z8 | 
[V:3] z8 | 
[V:4] z8 | 
[V:1] c4A4 | 
[V:2] c4d4 | 
[V:3] z8 | 
[V:4] z8 | 
[V:1] A4z2A2 | 
[V:2] f4d4- | 
[V:3] z8 | 
[V:4] z8 | 
[V:1] B3cded2- | 
[V:2] d2e2d2g2- | 
[V:3] G8- | 
[V:4] z8 | 
[V:1] dcc4B2 | 
[V:2] g2fed4 | 
[V:3] G8 | 
[V:4] z8 | 
[V:1] c8- | 
[V:2] c2f4ed | 
[V:3] A8 | 
[V:4] z8 | 
[V:1] c8 | 
[V:2] e8 | 
[V:3] c6B2 | 
[V:4] C,8 | 
[V:1] z8 | 
[V:2] f2edc4 | 
[V:3] A4z2A2 | 
[V:4] D,4F,4 | 
[V:1] z8 | 
[V:2] d2G2A2B2 | 
[V:3] B3cded2- | 
[V:4] D,2E,2D,2G,2 | 
[V:1] z8 | 
[V:2] G2A2F4 | 
[V:3] dcc4B2 | 
[V:4] E,2F,2D,4 | 
[V:1] c8 | 
[V:2] G2A3Bcd | 
[V:3] c4z4 | 
[V:4] C,4z4 | 
[V:1] G4A4 | 
[V:2] e4f4 | 
[V:3] c8- | 
[V:4] C,4F,4 | 
[V:1] G6G2 | 
[V:2] e8 | 
[V:3] c8- | 
[V:4] C,3D,E,2C,2 | 
[V:1] A2GFG4- | 
[V:2] f4e3f | 
[V:3] c8- | 
[V:4] F,4C,3D, | 
[V:1] G4z4 | 
[V:2] e8 | 
[V:3] c8 | 
[V:4] E,2C,2C,4 | 
[V:1] G3ABcd2- | 
[V:2] z2g3fd2 | 
[V:3] G8- | 
[V:4] z2E,3D,B,,2 | 
[V:1] dcc4B2 | 
[V:2] g2fed4 | 
[V:3] G8 | 
[V:4] C,4G,4 | 
[V:1] c3BcBAG | 
[V:2] c4z2d2- | 
[V:3] A8- | 
[V:4] z2F,2F,3E, | 
[V:1] F2G4^F2 | 
[V:2] d2e2d4 | 
[V:3] A8 | 
[V:4] D,2C,2D,4 | 
[V:1] G4z2G2- | 
[V:2] B3cd2e2 | 
[V:3] G8- | 
[V:4] E,2D,C,B,,2C,2 | 
[V:1] GFE2D4 | 
[V:2] d2c4B2 | 
[V:3] G8 | 
[V:4] B,,2C,2G,4 | 
[V:1] C2c4BA | 
[V:2] c2e4dc | 
[V:3] E8- | 
[V:4] C,6D,2 | 
[V:1] G2A4^G2 | 
[V:2] B2c2B4 | 
[V:3] E8 | 
[V:4] E,2C,2E,4 | 
[V:1] A4z4 | 
[V:2] A6d2- | 
[V:3] F8- | 
[V:4] z4D,4 | 
[V:1] A8- | 
[V:2] d2cBA4 | 
[V:3] F8- | 
[V:4] D,8- | 
[V:1] A6GF | 
[V:2] d8 | 
[V:3] F8 | 
[V:4] D,8 | 
[V:1] EDEFG4- | 
[V:2] z2c3def | 
[V:3] G8- | 
[V:4] C,8- | 
[V:1] G2E2G4- | 
[V:2] g2c3def | 
[V:3] G8- | 
[V:4] C,8- | 
[V:1] G2E3FGA | 
[V:2] g2c3def | 
[V:3] G8- | 
[V:4] C,8 | 
[V:1] B2G3ABc | 
[V:2] g2e2e4 | 
[V:3] G8- | 
[V:4] z2C,4B,,A,, | 
[V:1] d2e4dc | 
[V:2] z2g4fe | 
[V:3] G8- | 
[V:4] B,,2C,3D,E,F, | 
[V:1] B2c4B2 | 
[V:2] d2e2d4 | 
[V:3] G8 | 
[V:4] G,2C,2G,4 | 
[V:1] c8 | 
[V:2] c2e4dc | 
[V:3] E8 | 
[V:4] C,2C4B,A, | 
[V:1] z2c4BA | 
[V:2] B2c2A4 | 
[V:3] z8 | 
[V:4] G,2A,4G,F, | 
[V:1] G2A4GF | 
[V:2] c4A2B2 | 
[V:3] z4c4 | 
[V:4] E,2F,4E,D, | 
[V:1] EDEFG2F2- | 
[V:2] c6BA | 
[V:3] G2A2G2A2 | 
[V:4] C,3D,E,2F,2 | 
[V:1] FEE4D2 | 
[V:2] B2A4GF | 
[V:3] F2E2F4 | 
[V:4] D,2C,2D,4 | 
[V:1] !fermata!E8- | 
[V:2] G8 | 
[V:3] E2c4BA | 
[V:4] !fermata!C,8- | 
[V:1] E8 | 
[V:2] !fermata!c8 | 
[V:3] !fermata!G8 | 
[V:4] C,8 | 
[V:1] E2E4D2 | 
[V:2] c4A2B2 | 
[V:3] A2G2F4 | 
[V:4] A,,2C,2D,4 | 
[V:1] E8- | 
[V:2] B8- | 
[V:3] E8- | 
[V:4] z8 | 
[V:1] E8 ||  
[V:2] B8 ||  
[V:3] E8 ||  
[V:4] E,8 ||  
[V:1]  [K:C] [K:clef=treble][M:2/1]z8 | 
[V:2]  [K:C] [K:clef=treble-8][M:2/1]z8 | 
[V:3]  [K:C] [K:clef=treble-8][M:2/1]z8 | 
[V:4]  [K:C] [K:clef=bass][M:2/1]F,8 | 
[V:1] z8 | 
[V:2] z8 | 
[V:3] z8 | 
[V:4] G,4F,4- | 
[V:1] z8 | 
[V:2] z8 | 
[V:3] c8 | 
[V:4] F,2E,D,E,4 | 
[V:1] z8 | 
[V:2] z8 | 
[V:3] d4c4- | 
[V:4] D,3E,F,G,A,2- | 
[V:1] z8 | 
[V:2] z8 | 
[V:3] c2BAB4 | 
[V:4] A,2G,F,G,4 | 
[V:1] z8 | 
[V:2] z8 | 
[V:3] A3Bcde2- | 
[V:4] F,3G,A,B,C2- | 
[V:1] z8 | 
[V:2] z8 | 
[V:3] e2dcd2e2 | 
[V:4] C2B,A,G,4 | 
[V:1] z8 | 
[V:2] z8 | 
[V:3] d2c4B2 | 
[V:4] F,2E,2D,4 | 
[V:1] z8 | 
[V:2] c8 | 
[V:3] cBAGA2G2 | 
[V:4] C,8 | 
[V:1] z8 | 
[V:2] d4c3B | 
[V:3] G4z2E2 | 
[V:4] z8 | 
[V:1] c8 | 
[V:2] AGc4BA | 
[V:3] F3GA4 | 
[V:4] z8 | 
[V:1] d4c3B | 
[V:2] B4A3B | 
[V:3] G4z4 | 
[V:4] z8 | 
[V:1] AGc4BA | 
[V:2] cde4dc | 
[V:3] z8 | 
[V:4] z8 | 
[V:1] B4A3B | 
[V:2] d2e2c3d | 
[V:3] z8 | 
[V:4] z8 | 
[V:1] cde4dc | 
[V:2] efg4fe | 
[V:3] z8 | 
[V:4] z8 | 
[V:1] d2c4B2 | 
[V:2] f2c2d4 | 
[V:3] z4g4 | 
[V:4] z4G,4 | 
[V:1] c4z4 | 
[V:2] c4z4 | 
[V:3] e2f3edc | 
[V:4] A,4F,4 | 
[V:1] z8 | 
[V:2] z8 | 
[V:3] B2cde2d2- | 
[V:4] G,6F,E, | 
[V:1] z8 | 
[V:2] z8 | 
[V:3] dcBAG2c2- | 
[V:4] D,4E,4 | 
[V:1] z8 | 
[V:2] z8 | 
[V:3] c2BAB4 | 
[V:4] D,8 | 
[V:1] c8 | 
[V:2] z8 | 
[V:3] c2def2e2- | 
[V:4] C,4z4 | 
[V:1] B8 | 
[V:2] g8 | 
[V:3] e2dcd4 | 
[V:4] G,8 | 
[V:1] A2c4BA | 
[V:2] e4f4 | 
[V:3] c8 | 
[V:4] A,4F,4 | 
[V:1] G8 | 
[V:2] d4e4 | 
[V:3] B8 | 
[V:4] G,4E,4 | 
[V:1] z2A4GF | 
[V:2] c6d2 | 
[V:3] A8 | 
[V:4] F,6E,D, | 
[V:1] E2FGA2G2- | 
[V:2] e6dc | 
[V:3] c6BA | 
[V:4] C,6D,2 | 
[V:1] GFEDC2F2- | 
[V:2] B4z4 | 
[V:3] G4A4 | 
[V:4] E,4F,4 | 
[V:1] F2EDE4 | 
[V:2] c8 | 
[V:3] G8 | 
[V:4] C,8 | 
[V:1] F8- | 
[V:2] A2c3BAG | 
[V:3] F8 | 
[V:4] C8 | 
[V:1] F8 | 
[V:2] F2f2d2f2 | 
[V:3] z8 | 
[V:4] D6CB, | 
[V:1] z8 | 
[V:2] a3gfeg2- | 
[V:3] z8 | 
[V:4] A,4B,4 | 
[V:1] A8 | 
[V:2] g2^fe^f4 | 
[V:3] z8 | 
[V:4] A,8 | 
[V:1] B8 | 
[V:2] g2fedcd2 | 
[V:3] z8 | 
[V:4] G,8 | 
[V:1] c8 | 
[V:2] c3de4 | 
[V:3] A8 | 
[V:4] z8 | 
[V:1] B4G4 | 
[V:2] d4e4 | 
[V:3] B8 | 
[V:4] G,8 | 
[V:1] A8 | 
[V:2] f8 | 
[V:3] c8 | 
[V:4] F,8 | 
[V:1] G6G2- | 
[V:2] d4c4 | 
[V:3] B4G4 | 
[V:4] G,4E,4 | 
[V:1] G2^FEF4 | 
[V:2] d8 | 
[V:3] A8 | 
[V:4] D,8 | 
[V:1] G4z2d2- | 
[V:2] z2d3cBA | 
[V:3] G4z2G2- | 
[V:4] z2G,3A,B,C | 
[V:1] dcBAB2A2- | 
[V:2] G4z2f2- | 
[V:3] GABcd4 | 
[V:4] D4D,3E, | 
[V:1] AGG4^F2 | 
[V:2] fedcd4 | 
[V:3] c2B2A4 | 
[V:4] F,2G,2D,4 | 
[V:1] G8- | 
[V:2] B4c2d2 | 
[V:3] G8- | 
[V:4] E,3D,C,2B,,2 | 
[V:1] G8- | 
[V:2] e8 | 
[V:3] G8- | 
[V:4] C,8 | 
[V:1] G8 ||  
[V:2] d8 ||  
[V:3] G8 ||  
[V:4] G,,8 ||  
[V:1]  [K:C] [K:clef=treble][M:2/1]G4B4 | 
[V:2]  [K:C] [K:clef=treble-8][M:2/1]g6f2 | 
[V:3]  [K:C] [K:clef=treble-8][M:2/1]z8 | 
[V:4]  [K:C] [K:clef=bass][M:2/1]z8 | 
[V:1] c4d4- | 
[V:2] e2c2g2f2 | 
[V:3] z8 | 
[V:4] z8 | 
[V:1] d2d2d4 | 
[V:2] g4d4 | 
[V:3] G4B4 | 
[V:4] G,6F,2 | 
[V:1] e4d4 | 
[V:2] z4g2a2 | 
[V:3] c4d4- | 
[V:4] E,2C,2G,2F,2 | 
[V:1] B4z4 | 
[V:2] g2G2A2B2 | 
[V:3] d2d2d4 | 
[V:4] G,4D,4 | 
[V:1] z8 | 
[V:2] c4A4 | 
[V:3] e4d4 | 
[V:4] A,4D,4 | 
[V:1] z8 | 
[V:2] d2e2f2e2- | 
[V:3] B4z4 | 
[V:4] G,4F,2G,2 | 
[V:1] z8 | 
[V:2] edd4^c2 | 
[V:3] z8 | 
[V:4] A,2G,F,E,4 | 
[V:1] d6c2 | 
[V:2] d3cB2A2 | 
[V:3] z8 | 
[V:4] D,6F,2 | 
[V:1] B4A4 | 
[V:2] B2G2z4 | 
[V:3] d6c2 | 
[V:4] G,4D,2F,2 | 
[V:1] G4A4 | 
[V:2] d4d4- | 
[V:3] B4A4 | 
[V:4] G,4D,4 | 
[V:1] B2c2A4 | 
[V:2] d2e2c2f2 | 
[V:3] G4A4 | 
[V:4] G,2E,2F,2D,2 | 
[V:1] z2G4^F2 | 
[V:2] d2e2d4 | 
[V:3] B2c2A4 | 
[V:4] G,2C,2D,4 | 
[V:1] G8 | 
[V:2] B4GABc | 
[V:3] G8 | 
[V:4] D4B,2G,2 | 
[V:1] z8 | 
[V:2] d2e4f2 | 
[V:3] z8 | 
[V:4] B,2C2A,4 | 
[V:1] d4e4 | 
[V:2] g2f2e2c2 | 
[V:3] z8 | 
[V:4] G,2D,2A,4 | 
[V:1] d4c2B2- | 
[V:2] d4z4 | 
[V:3] d4e4 | 
[V:4] D,E,F,G,A,2G,2- | 
[V:1] B2AGA2G2- | 
[V:2] z4z2d2 | 
[V:3] d4c2B2- | 
[V:4] G,2F,E,F,2G,2 | 
[V:1] G2FEF2A2- | 
[V:2] e2dcd2f2- | 
[V:3] B2AGA2d2 | 
[V:4] E,4D,3E, | 
[V:1] AGG4^F2 | 
[V:2] fedcd4- | 
[V:3] c2B2A4 | 
[V:4] F,2G,2D,4 | 
[V:1] G8 | 
[V:2] d8 | 
[V:3] G8 | 
[V:4] G,,8 | 
[V:1] B4A4 | 
[V:2] g4f4 | 
[V:3] z8 | 
[V:4] z8 | 
[V:1] B4c4 | 
[V:2] d2e4f2 | 
[V:3] z8 | 
[V:4] z8 | 
[V:1] B4A4 | 
[V:2] g2e2fedc | 
[V:3] z8 | 
[V:4] z8 | 
[V:1] G2G4^F2 | 
[V:2] B2c2A4 | 
[V:3] z8 | 
[V:4] z8 | 
[V:1] G4z4 | 
[V:2] G4z4 | 
[V:3] B4A4 | 
[V:4] G,4F,4 | 
[V:1] z8 | 
[V:2] z2g4fe | 
[V:3] B4c4 | 
[V:4] D,2E,4F,2 | 
[V:1] z8 | 
[V:2] d2g4^f2 | 
[V:3] B2AGA4 | 
[V:4] G,2E,2D,4 | 
[V:1] z4G4 | 
[V:2] g2d2e4 | 
[V:3] G4z4 | 
[V:4] z2G,2E,2C,2 | 
[V:1] B4c4 | 
[V:2] d4e4 | 
[V:3] z8 | 
[V:4] G,4E,2C,2 | 
[V:1] d6d2 | 
[V:2] d4B2G2 | 
[V:3] z4G4 | 
[V:4] G,4z4 | 
[V:1] d4e4 | 
[V:2] d4G3A | 
[V:3] B4c4 | 
[V:4] G,4E,2C,2 | 
[V:1] d3cB2A2- | 
[V:2] B2A2G2A2 | 
[V:3] d6d2 | 
[V:4] G,2F,2G,2F,2 | 
[V:1] A2d4^c2 | 
[V:2] A6a2- | 
[V:3] d4e4 | 
[V:4] D,4A,4 | 
[V:1] d4z4 | 
[V:2] ag^fe^f4 | 
[V:3] d8 | 
[V:4] D,8 | 
[V:1] d4e2d2- | 
[V:2] g6f2 | 
[V:3] B4z4 | 
[V:4] G,4C,2D,2 | 
[V:1] d2B2c2B2 | 
[V:2] g6d2 | 
[V:3] d4e2d2 | 
[V:4] G,4C,2G,2- | 
[V:1] G2d2e2d2- | 
[V:2] g6f2 | 
[V:3] B4c2B2 | 
[V:4] G,2G,2C,2D,2 | 
[V:1] d2B2c2B2 | 
[V:2] g6d2 | 
[V:3] G2d2e2d2 | 
[V:4] G,4C,2G,2- | 
[V:1] G2d2e2d2- | 
[V:2] g6f2 | 
[V:3] B4c2B2 | 
[V:4] G,2G,2C,2D,2 | 
[V:1] dcBAB2G2 | 
[V:2] g8 | 
[V:3] G2d4e2 | 
[V:4] G,6E,2 | 
[V:1] c2B2A2B2- | 
[V:2] z4z2d2- | 
[V:3] c2d3cBA | 
[V:4] A,2G,2D,2G,2- | 
[V:1] BAG4^F2 | 
[V:2] d2e2d4 | 
[V:3] G2B2A4 | 
[V:4] G,A,G,2D,4 | 
[V:1] G4z4 | 
[V:2] B2G2B3c | 
[V:3] G8 | 
[V:4] z2D3CB,A, | 
[V:1] d6c2 | 
[V:2] d3efga2 | 
[V:3] z8 | 
[V:4] G,2F,E,D,2F,2 | 
[V:1] B4A4 | 
[V:2] g4f2a2 | 
[V:3] d6c2 | 
[V:4] G,4D,2F,2 | 
[V:1] d6c2 | 
[V:2] g4f2a2 | 
[V:3] B4A4 | 
[V:4] G,4D,2F,2 | 
[V:1] B2A2B2A2- | 
[V:2] g2a2f2a2 | 
[V:3] d6c2 | 
[V:4] G,2F,2D,2F,2 | 
[V:1] AGG4^F2 | 
[V:2] d2e2d4 | 
[V:3] B2c2A4 | 
[V:4] G,2C,2D,4 | 
[V:1] G8- | 
[V:2] B2c3de2- | 
[V:3] G8- | 
[V:4] E,6C,2- | 
[V:1] G8- | 
[V:2] edc2B2c2 | 
[V:3] G8- | 
[V:4] C,D,E,3D,C,2 | 
[V:1] G8- | 
[V:2] d2e4dc | 
[V:3] G8- | 
[V:4] B,,2C,3D,E,F, | 
[V:1] G8- | 
[V:2] B3AB2c2 | 
[V:3] G8- | 
[V:4] G,8 | 
[V:1] G8 |]  
[V:2] d8 |]  
[V:3] G8 |]  
[V:4] G,,8 |]  



